X: 2463
T: Balls To Hall
R: jig
M: 6/8
K: Eminor
|:GEE AEE|BAB cBA|B3 BAG|FGF DEF|
GEE AEE|BAB cBA|B3 BAG|1 FGF E2F:|2 FGF E2A||
K: Emaj
|:B2e e2f|g3 gfe|c2a a2g|fgf fec|
[1 B2e e2f|g3 gfe|bee aee|gag fec:|
[2 B2e e2f|g3 g3|aef =dAB|FEF =DEF||

